X: 542
T: James Kelly's
M: 6/8
S: "Raise the Rafters" (PJ King, K.Crawford, M.O Malley)
Z: B.Black
N: Listed as a "slip jig" on CD but tune isn't in 9/8 time.
N: Also notice that each part is played once. Set dance?
Q: 300
N:Posted to the woodenflute mailing list June 2002
K: D
FAA BA2|FAA AB/c/d|FAA BA2|f2 ed BA :|
faa fd2|f2 ed BA|fd ec d2|B=c BA F/E/D :|

